tokens/virtual.svg

<svg xmlns="http://www.w3.org/2000/svg" fill="none" viewBox="0 0 48 48">
  <defs>
    <linearGradient id="a" x1="0" x2="48" y1="0" y2="48" gradientUnits="userSpaceOnUse">
      <stop stop-color="#c6f0f3"/>
      <stop offset="1" stop-color="#f0ffd6"/>
    </linearGradient>
  </defs>
  <path fill="url(#a)" d="M0 0h48v48H0z"/>
  <path fill="#2d999a" d="M23.54 14.62h1.23v.15h.77v.15h.31v.16h.46v.15h.15v.15h.31v.16h.31v.15h.15v.16h.15V16h.16v.15h.15v.16h.16v.15H28v.31h.15v.15h.16v.16h.15v.3h.16v.31h.15V18h.15v.46h.16v.31h.15v.61h.15V20h.16v2.62h.77v-.16h.61v-.15h.46v-.16h.31V22h.46v-.15h.31v-.16h.31v-.15h.46v-.16h.31v-.15h.31v-.15H34v-.16h.31v-.15h.31v-.15h.3v-.16h.46v.16h.16v.3h-.16v.16h-.15v.15h-.15v.15h-.16v.16h-.15v.15h-.31v.16h-.15V22h-.16v.15h-.3v.16h-.16v.15h-.31v.16h-.15v.15h-.31v.15h-.15v.16h-.31v.15h-.31v.15H32v.16h-.31v.15h-.31v.16h-.3V24h-.31v.15h-.46v.16H30v.15h-.31v.16h-.31v.15h-.15v.31h-.15v.61h-.16V26h-.15v.46h-.15v.46h-.16v.31h-.15v.31h-.16v.31H28v.3h-.15v.31h-.16v.31h-.15v.31h-.16v.15h-.15v.31h-.15v.31h-.16V30h-.15v.15h-.15v.31h-.16v.16h-.15v.3h-.16v.16H26v.15h-.15v.15h-.16v.31h-.15v.16h-.16V32h-.15v.15h-.15v.16h-.16v.31h-.15v.15h-.31v.15h-.15v.16H24v.15h-.46v.15h-.77v-.15h-.62v-.15H22v-.16h-.31v-.15h-.15v-.15h-.16v-.16h-.15v-.31h-.15v-.3h-.16v-.47h-.15v-.3h-.15v-.31h-.16v-.31h-.15v-.31h-.16v-.3H20v-.31h-.15v-.31h-.16v-.15h-.15v-.31h-.16v-.15h-.15v-.31h-.15V28h-.16v-.15h-.15v-.16h-.15v-.31h-.16v-.15h-.15v-.31h-.16v-.15H18v-.15h-.15v-.31h-.16v-.16h-.15V26h-.16v-.15h-.15v-.16h-.15v-.15h-.16v-.31h-.15v-.15h-.15v-.16h-.16v-.15h-.15v-.15h-.16v-.16H16v-.15h-.15v-.16h-.16V24h-.15v-.15h-.16v-.16h-.15v-.15h-.15v-.16h-.31v-.15h-.15v-.15h-.16v-.16h-.15v-.15h-.16v-.15h-.3v-.16h-.16v-.15h-.15v-.16h-.31V22h-.15v-.15h-.16v-.16h-.3v-.15h-.16v-.16h-.31v-.15H12v-.15h-.31v-.16h-.31v-.15h-.15v-.15h-.31v-.16h-.3v-.15h-.31v-.16H10V20h-.31v-.15h-.15v-.47h.15v-.15h.46v.15h.93v.16h.46v.15h.61v.16h.47V20h.46v.15h.3v.16h.47v.15h.3v.16h.31v.15h.31v.15h.31v.16h.3v.15h.31v.15H16v.16h.31v.15h.15v.16h.31V22h.15v.15h.31v.16h.15v.15h.31v.16h.16v.15H18v.15h.31v.16h.15v.15h.16v.15h.15v.16h.15v.15h.31v.16h.15V24h.16v.15h.15v.16h.16v.15H20v.16h.15v.15h.16v.15h.15v.16h.16v.15h.15v.15h.15v.16h.16v.31h.15V26h.15v.15h.16v.16h.15v.15h.16v.31H22v.15h.15v.16h.16v.3h.15v.16h.16v.31h.15V28h.15v.15h.16v.31h.15v.16h.15v-.16h.16v-.15h.15v-.16h.16v-.3H24v-.31h.15v-.16h.16v-.3h.15v-.16h.16v-.3h.15v-.31h.15V26h.16v-.31h.15v-.15h-.15v-.16h-1.23v-.15h-.62v-.15h-.46v-.16h-.46v-.15H22v-.15h-.31v-.16h-.15v-.15h-.31v-.16h-.15V24h-.31v-.15h-.15v-.16h-.16v-.15h-.15v-.16h-.16v-.15H20v-.15h-.15v-.31h-.16v-.15h-.15v-.31h-.16v-.16h-.15v-.46h-.15v-.31h-.16v-.46h-.15v-2.15h.15v-.46h.16v-.46h.15v-.31h.15v-.31h.16v-.15h.15v-.31h.16v-.15H20v-.16h.15v-.15h.16v-.16h.15V16h.16v-.15h.3v-.16h.16v-.15h.3v-.16h.16v-.15h.31v-.15h.46v-.16h.31v-.15h.92Zm-.16 2.92v.15h-.46v.16h-.3V18h-.16v.15h-.15v.16h-.16v.15H22v.16h-.15v.3h-.16v1.7h.16v.3H22v.31h.15v.15h.16v.31h.15v.16h.16V22h.15v.15h.15v.16h.31v.15h.15v.16h.31v.15h.46v.15h.47v.16h.76v.15H26v-.15h.15v-.93h.16v-1.84h-.16v-.77H26v-.46h-.15v-.31h-.16v-.31h-.15v-.15h-.16V18h-.3v-.15h-.16v-.16h-.3v-.15Zm13.85 1.08H38v.15h.31v.15h.15v.46h.16v.16h-.16V20h-.15v.15h-.16v.16H38v.15h-.15v.16h-.77v-.16h-.16v-.15h-.15v-.16h-.15v-.46h-.16v-.46h.16v-.15h.15v-.16h.15v-.15h.31Z"/>
</svg>

<svg xmlns="http://www.w3.org/2000/svg" width="32" height="32" viewBox="0 0 48 48" fill="none">
    <defs>
        <linearGradient id="virtual-bg" x1="0" y1="0" x2="48" y2="48" gradientUnits="userSpaceOnUse">
            <stop stop-color="#C6F0F3"/>
            <stop offset="1" stop-color="#F0FFD6"/>
        </linearGradient>
    </defs>
    <rect width="48" height="48" fill="url(#virtual-bg)"/>
    <path fill="#2D999A" d="M23.54 14.62H24.77V14.77H25.54V14.92H25.85V15.08H26.31V15.23H26.46V15.38H26.77V15.54H27.08V15.69H27.23V15.85H27.38V16H27.54V16.15H27.69V16.31H27.85V16.46H28V16.77H28.15V16.92H28.31V17.08H28.46V17.38H28.62V17.69H28.77V18H28.92V18.46H29.08V18.77H29.23V19.38H29.38V20H29.54V22.62H30.31V22.46H30.92V22.31H31.38V22.15H31.69V22H32.15V21.85H32.46V21.69H32.77V21.54H33.23V21.38H33.54V21.23H33.85V21.08H34V20.92H34.31V20.77H34.62V20.62H34.92V20.46H35.38V20.62H35.54V20.92H35.38V21.08H35.23V21.23H35.08V21.38H34.92V21.54H34.77V21.69H34.46V21.85H34.31V22H34.15V22.15H33.85V22.31H33.69V22.46H33.38V22.62H33.23V22.77H32.92V22.92H32.77V23.08H32.46V23.23H32.15V23.38H32V23.54H31.69V23.69H31.38V23.85H31.08V24H30.77V24.15H30.31V24.31H30V24.46H29.69V24.62H29.38V24.77H29.23V25.08H29.08V25.69H28.92V26H28.77V26.46H28.62V26.92H28.46V27.23H28.31V27.54H28.15V27.85H28V28.15H27.85V28.46H27.69V28.77H27.54V29.08H27.38V29.23H27.23V29.54H27.08V29.85H26.92V30H26.77V30.15H26.62V30.46H26.46V30.62H26.31V30.92H26.15V31.08H26V31.23H25.85V31.38H25.69V31.69H25.54V31.85H25.38V32H25.23V32.15H25.08V32.31H24.92V32.62H24.77V32.77H24.46V32.92H24.31V33.08H24V33.23H23.54V33.38H22.77V33.23H22.15V33.08H22V32.92H21.69V32.77H21.54V32.62H21.38V32.46H21.23V32.15H21.08V31.85H20.92V31.38H20.77V31.08H20.62V30.77H20.46V30.46H20.31V30.15H20.15V29.85H20V29.54H19.85V29.23H19.69V29.08H19.54V28.77H19.38V28.62H19.23V28.31H19.08V28H18.92V27.85H18.77V27.69H18.62V27.38H18.46V27.23H18.31V26.92H18.15V26.77H18V26.62H17.85V26.31H17.69V26.15H17.54V26H17.38V25.85H17.23V25.69H17.08V25.54H16.92V25.23H16.77V25.08H16.62V24.92H16.46V24.77H16.31V24.62H16.15V24.46H16V24.31H15.85V24.15H15.69V24H15.54V23.85H15.38V23.69H15.23V23.54H15.08V23.38H14.77V23.23H14.62V23.08H14.46V22.92H14.31V22.77H14.15V22.62H13.85V22.46H13.69V22.31H13.54V22.15H13.23V22H13.08V21.85H12.92V21.69H12.62V21.54H12.46V21.38H12.15V21.23H12V21.08H11.69V20.92H11.38V20.77H11.23V20.62H10.92V20.46H10.62V20.31H10.31V20.15H10V20H9.69V19.85H9.54V19.38H9.69V19.23H10.15V19.38H11.08V19.54H11.54V19.69H12.15V19.85H12.62V20H13.08V20.15H13.38V20.31H13.85V20.46H14.15V20.62H14.46V20.77H14.77V20.92H15.08V21.08H15.38V21.23H15.69V21.38H16V21.54H16.31V21.69H16.46V21.85H16.77V22H16.92V22.15H17.23V22.31H17.38V22.46H17.69V22.62H17.85V22.77H18V22.92H18.31V23.08H18.46V23.23H18.62V23.38H18.77V23.54H18.92V23.69H19.23V23.85H19.38V24H19.54V24.15H19.69V24.31H19.85V24.46H20V24.62H20.15V24.77H20.31V24.92H20.46V25.08H20.62V25.23H20.77V25.38H20.92V25.54H21.08V25.85H21.23V26H21.38V26.15H21.54V26.31H21.69V26.46H21.85V26.77H22V26.92H22.15V27.08H22.31V27.38H22.46V27.54H22.62V27.85H22.77V28H22.92V28.15H23.08V28.46H23.23V28.62H23.38V28.46H23.54V28.31H23.69V28.15H23.85V27.85H24V27.54H24.15V27.38H24.31V27.08H24.46V26.92H24.62V26.62H24.77V26.31H24.92V26H25.08V25.69H25.23V25.54H25.08V25.38H23.85V25.23H23.23V25.08H22.77V24.92H22.31V24.77H22V24.62H21.69V24.46H21.54V24.31H21.23V24.15H21.08V24H20.77V23.85H20.62V23.69H20.46V23.54H20.31V23.38H20.15V23.23H20V23.08H19.85V22.77H19.69V22.62H19.54V22.31H19.38V22.15H19.23V21.69H19.08V21.38H18.92V20.92H18.77V18.77H18.92V18.31H19.08V17.85H19.23V17.54H19.38V17.23H19.54V17.08H19.69V16.77H19.85V16.62H20V16.46H20.15V16.31H20.31V16.15H20.46V16H20.62V15.85H20.92V15.69H21.08V15.54H21.38V15.38H21.54V15.23H21.85V15.08H22.31V14.92H22.62V14.77H23.54Z M23.38 17.54V17.69H22.92V17.85H22.62V18H22.46V18.15H22.31V18.31H22.15V18.46H22V18.62H21.85V18.92H21.69V20.62H21.85V20.92H22V21.23H22.15V21.38H22.31V21.69H22.46V21.85H22.62V22H22.77V22.15H22.92V22.31H23.23V22.46H23.38V22.62H23.69V22.77H24.15V22.92H24.62V23.08H25.38V23.23H26V23.08H26.15V22.15H26.31V20.31H26.15V19.54H26V19.08H25.85V18.77H25.69V18.46H25.54V18.31H25.38V18H25.08V17.85H24.92V17.69H24.62V17.54Z M37.23 18.62H38V18.77H38.31V18.92H38.46V19.38H38.62V19.54H38.46V20H38.31V20.15H38.15V20.31H38V20.46H37.85V20.62H37.08V20.46H36.92V20.31H36.77V20.15H36.62V19.69H36.46V19.23H36.62V19.08H36.77V18.92H36.92V18.77H37.23Z"/>
</svg>
